nextcloudappstore/core/static/assets/img/icons/categories/all-apps.svg

<svg width="15" height="15" fill="none" style="-webkit-print-color-adjust:exact" version="1.1" viewBox="-7571.5 3236.5 15 15" xmlns="http://www.w3.org/2000/svg"><g class="fills"><path rx="0" ry="0" d="m-7569.8 3236.5h11.666c0.921 0 1.667 0.746 1.667 1.667v11.666c0 0.921-0.746 1.667-1.667 1.667h-11.666c-0.921 0-1.667-0.746-1.667-1.667v-11.666c0-0.921 0.746-1.667 1.667-1.667zm1.666 3.333v1.667h1.667v-1.667h-1.667zm3.334 0v1.667h1.666v-1.667h-1.666zm3.333 0v1.667h1.667v-1.667h-1.667zm-6.667 3.334v1.666h1.667v-1.666h-1.667zm3.334 0v1.666h1.666v-1.666h-1.666zm3.333 0v1.666h1.667v-1.666h-1.667zm-6.667 3.333v1.667h1.667v-1.667h-1.667zm3.334 0v1.667h1.666v-1.667h-1.666zm3.333 0v1.667h1.667v-1.667h-1.667z" fill="#007bbd"/></g></svg>

<svg xmlns:xlink="http://www.w3.org/1999/xlink" width="15" xmlns="http://www.w3.org/2000/svg" height="15" id="screenshot-db15cf86-6f9e-8025-8002-bbab9ed6fe0a" viewBox="-7571.5 3236.5 15 15" style="-webkit-print-color-adjust: exact;" fill="none" version="1.1"><g id="shape-db15cf86-6f9e-8025-8002-bbab9ed6fe0a"><g class="fills" id="fills-db15cf86-6f9e-8025-8002-bbab9ed6fe0a"><path rx="0" ry="0" d="M-7569.833,3236.500L-7558.167,3236.500C-7557.246,3236.500,-7556.500,3237.246,-7556.500,3238.167L-7556.500,3249.833C-7556.500,3250.754,-7557.246,3251.500,-7558.167,3251.500L-7569.833,3251.500C-7570.754,3251.500,-7571.500,3250.754,-7571.500,3249.833L-7571.500,3238.167C-7571.500,3237.246,-7570.754,3236.500,-7569.833,3236.500ZM-7568.167,3239.833L-7568.167,3241.500L-7566.500,3241.500L-7566.500,3239.833L-7568.167,3239.833ZM-7564.833,3239.833L-7564.833,3241.500L-7563.167,3241.500L-7563.167,3239.833L-7564.833,3239.833ZM-7561.500,3239.833L-7561.500,3241.500L-7559.833,3241.500L-7559.833,3239.833L-7561.500,3239.833ZM-7568.167,3243.167L-7568.167,3244.833L-7566.500,3244.833L-7566.500,3243.167L-7568.167,3243.167ZM-7564.833,3243.167L-7564.833,3244.833L-7563.167,3244.833L-7563.167,3243.167L-7564.833,3243.167ZM-7561.500,3243.167L-7561.500,3244.833L-7559.833,3244.833L-7559.833,3243.167L-7561.500,3243.167ZM-7568.167,3246.500L-7568.167,3248.167L-7566.500,3248.167L-7566.500,3246.500L-7568.167,3246.500ZM-7564.833,3246.500L-7564.833,3248.167L-7563.167,3248.167L-7563.167,3246.500L-7564.833,3246.500ZM-7561.500,3246.500L-7561.500,3248.167L-7559.833,3248.167L-7559.833,3246.500L-7561.500,3246.500ZZ" style="fill: rgb(0, 123, 189); fill-opacity: 1;"/></g></g></svg>
